public/svg/idea.svg

<svg enable-background="new 0 0 512 512" viewBox="0 0 512 512" xmlns="http://www.w3.org/2000/svg" xmlns:xlink="http://www.w3.org/1999/xlink"><linearGradient id="a"><stop offset="0" stop-color="#52baeb"/><stop offset="1" stop-color="#5a6ddc"/></linearGradient><linearGradient id="b" gradientUnits="userSpaceOnUse" x1="307.9922" x2="309.9922" xlink:href="#a" y1="-.9388" y2="512.0612"/><linearGradient id="c" gradientUnits="userSpaceOnUse" x1="255.3002" x2="257.3002" xlink:href="#a" y1="-.7334" y2="512.2666"/><linearGradient id="d" gradientUnits="userSpaceOnUse" x1="29.2404" x2="31.2404" xlink:href="#a" y1=".1479" y2="513.1479"/><linearGradient id="e" gradientUnits="userSpaceOnUse" x1="29.5913" x2="31.5911" xlink:href="#a" y1=".1466" y2="513.1019"/><linearGradient id="f" gradientUnits="userSpaceOnUse" x1="28.8895" x2="30.8895" xlink:href="#a" y1=".1493" y2="513.1493"/><linearGradient id="g" gradientUnits="userSpaceOnUse" x1="481.2335" x2="483.2335" xlink:href="#a" y1="-1.6142" y2="511.3858"/><linearGradient id="h" gradientUnits="userSpaceOnUse" x1="481.5844" x2="483.5844" xlink:href="#a" y1="-1.6156" y2="511.3844"/><linearGradient id="i" gradientUnits="userSpaceOnUse" x1="480.8826" x2="482.8826" xlink:href="#a" y1="-1.6128" y2="511.3871"/><path d="m256 60c-8.3 0-15 6.7-15 15s6.7 15 15 15c49.6 0 90 40.4 90 90 0 8.3 6.7 15 15 15s15-6.7 15-15c0-66.2-53.8-120-120-120z" fill="url(#b)"/><path d="m217.3 4c-67.7 14.2-122.7 68.6-137.1 136.8-12.2 57.6 2.8 115.4 41.3 158.6 18.8 21.1 29.6 49 29.6 76.6v30c0 20 13.1 36.9 31.1 42.8 5.9 35 36.3 63.2 73.9 63.2s68-28.2 73.9-63.2c18-5.9 31.1-22.8 31.1-42.8v-30c0-27.6 10.8-55.2 30.4-77.6 28.7-32.8 44.5-74.8 44.5-118.4 0-113.6-103.9-199.9-218.7-176zm38.7 478c-19.3 0-36.2-13.3-42.4-31.1h84.9c-6.3 17.8-23.2 31.1-42.5 31.1zm75-76c0 8.3-6.7 15-15 15h-120c-8.3 0-15-6.7-15-15v-15h150zm37.9-127.4c-20.9 23.9-33.8 52.6-37.1 82.3h-151.6c-3.3-29.7-16.1-58.8-36.3-81.5-32-36-44.6-84.3-34.3-132.4 11.9-56.2 57.7-101.9 114-113.6 95.9-20.1 182.4 52 182.4 146.6 0 36.3-13.2 71.3-37.1 98.6z" fill="url(#c)"/><path d="m45 180h-30c-8.3 0-15 6.7-15 15s6.7 15 15 15h30c8.3 0 15-6.7 15-15s-6.7-15-15-15z" fill="url(#d)"/><path d="m51.2 105-21.2-21.2c-5.9-5.9-15.4-5.9-21.2 0s-5.9 15.4 0 21.2l21.2 21.2c5.9 5.9 15.4 5.9 21.2 0 5.9-5.9 5.9-15.4 0-21.2z" fill="url(#e)"/><path d="m51.2 263.8c-5.9-5.9-15.4-5.9-21.2 0l-21.2 21.2c-5.9 5.9-5.9 15.4 0 21.2 5.9 5.9 15.4 5.9 21.2 0l21.2-21.2c5.9-5.9 5.9-15.4 0-21.2z" fill="url(#f)"/><path d="m497 180h-30c-8.3 0-15 6.7-15 15s6.7 15 15 15h30c8.3 0 15-6.7 15-15s-6.7-15-15-15z" fill="url(#g)"/><path d="m503.2 83.8c-5.9-5.9-15.4-5.9-21.2 0l-21.2 21.2c-5.9 5.9-5.9 15.4 0 21.2 5.9 5.9 15.4 5.9 21.2 0l21.2-21.2c5.9-5.9 5.9-15.4 0-21.2z" fill="url(#h)"/><path d="m503.2 285-21.2-21.2c-5.9-5.9-15.4-5.9-21.2 0s-5.9 15.4 0 21.2l21.2 21.2c5.9 5.9 15.4 5.9 21.2 0s5.9-15.4 0-21.2z" fill="url(#i)"/></svg>

<?xml version="1.0" encoding="utf-8"?>
<!-- Generator: Adobe Illustrator 24.0.3, SVG Export Plug-In . SVG Version: 6.00 Build 0)  -->
<svg version="1.1" id="Capa_1" xmlns="http://www.w3.org/2000/svg" xmlns:xlink="http://www.w3.org/1999/xlink" x="0px" y="0px"
	 viewBox="0 0 512 512" style="enable-background:new 0 0 512 512;" xml:space="preserve">
<style type="text/css">
	.st0{fill:url(#SVGID_1_);}
	.st1{fill:url(#SVGID_2_);}
	.st2{fill:url(#SVGID_3_);}
	.st3{fill:url(#SVGID_4_);}
	.st4{fill:url(#SVGID_5_);}
	.st5{fill:url(#SVGID_6_);}
	.st6{fill:url(#SVGID_7_);}
	.st7{fill:url(#SVGID_8_);}
</style>
<g>
	<g>
		<linearGradient id="SVGID_1_" gradientUnits="userSpaceOnUse" x1="307.9922" y1="-0.9388" x2="309.9922" y2="512.0612">
			<stop  offset="0" style="stop-color:#52BAEB"/>
			<stop  offset="1" style="stop-color:#5A6DDC"/>
		</linearGradient>
		<path class="st0" d="M256,60c-8.3,0-15,6.7-15,15s6.7,15,15,15c49.6,0,90,40.4,90,90c0,8.3,6.7,15,15,15s15-6.7,15-15
			C376,113.8,322.2,60,256,60z"/>
	</g>
</g>
<g>
	<g>
		<linearGradient id="SVGID_2_" gradientUnits="userSpaceOnUse" x1="255.3002" y1="-0.7334" x2="257.3002" y2="512.2666">
			<stop  offset="0" style="stop-color:#52BAEB"/>
			<stop  offset="1" style="stop-color:#5A6DDC"/>
		</linearGradient>
		<path class="st1" d="M217.3,4C149.6,18.2,94.6,72.6,80.2,140.8c-12.2,57.6,2.8,115.4,41.3,158.6c18.8,21.1,29.6,49,29.6,76.6v30
			c0,20,13.1,36.9,31.1,42.8c5.9,35,36.3,63.2,73.9,63.2c37.6,0,68-28.2,73.9-63.2c18-5.9,31.1-22.8,31.1-42.8v-30
			c0-27.6,10.8-55.2,30.4-77.6C420.2,265.6,436,223.6,436,180C436,66.4,332.1-19.9,217.3,4z M256,482c-19.3,0-36.2-13.3-42.4-31.1
			h84.9C292.2,468.7,275.3,482,256,482z M331,406c0,8.3-6.7,15-15,15H196c-8.3,0-15-6.7-15-15v-15h150V406z M368.9,278.6
			c-20.9,23.9-33.8,52.6-37.1,82.3H180.2c-3.3-29.7-16.1-58.8-36.3-81.5c-32-36-44.6-84.3-34.3-132.4
			c11.9-56.2,57.7-101.9,114-113.6C319.5,13.3,406,85.4,406,180C406,216.3,392.8,251.3,368.9,278.6z"/>
	</g>
</g>
<g>
	<g>
		<linearGradient id="SVGID_3_" gradientUnits="userSpaceOnUse" x1="29.2404" y1="0.1479" x2="31.2404" y2="513.1479">
			<stop  offset="0" style="stop-color:#52BAEB"/>
			<stop  offset="1" style="stop-color:#5A6DDC"/>
		</linearGradient>
		<path class="st2" d="M45,180H15c-8.3,0-15,6.7-15,15s6.7,15,15,15h30c8.3,0,15-6.7,15-15S53.3,180,45,180z"/>
	</g>
</g>
<g>
	<g>
		<linearGradient id="SVGID_4_" gradientUnits="userSpaceOnUse" x1="29.5913" y1="0.1466" x2="31.5911" y2="513.1019">
			<stop  offset="0" style="stop-color:#52BAEB"/>
			<stop  offset="1" style="stop-color:#5A6DDC"/>
		</linearGradient>
		<path class="st3" d="M51.2,105L30,83.8c-5.9-5.9-15.4-5.9-21.2,0s-5.9,15.4,0,21.2L30,126.2c5.9,5.9,15.4,5.9,21.2,0
			C57.1,120.3,57.1,110.8,51.2,105z"/>
	</g>
</g>
<g>
	<g>
		<linearGradient id="SVGID_5_" gradientUnits="userSpaceOnUse" x1="28.8895" y1="0.1493" x2="30.8895" y2="513.1493">
			<stop  offset="0" style="stop-color:#52BAEB"/>
			<stop  offset="1" style="stop-color:#5A6DDC"/>
		</linearGradient>
		<path class="st4" d="M51.2,263.8c-5.9-5.9-15.4-5.9-21.2,0L8.8,285c-5.9,5.9-5.9,15.4,0,21.2c5.9,5.9,15.4,5.9,21.2,0L51.2,285
			C57.1,279.1,57.1,269.6,51.2,263.8z"/>
	</g>
</g>
<g>
	<g>
		<linearGradient id="SVGID_6_" gradientUnits="userSpaceOnUse" x1="481.2335" y1="-1.6142" x2="483.2335" y2="511.3858">
			<stop  offset="0" style="stop-color:#52BAEB"/>
			<stop  offset="1" style="stop-color:#5A6DDC"/>
		</linearGradient>
		<path class="st5" d="M497,180h-30c-8.3,0-15,6.7-15,15s6.7,15,15,15h30c8.3,0,15-6.7,15-15S505.3,180,497,180z"/>
	</g>
</g>
<g>
	<g>
		<linearGradient id="SVGID_7_" gradientUnits="userSpaceOnUse" x1="481.5844" y1="-1.6156" x2="483.5844" y2="511.3844">
			<stop  offset="0" style="stop-color:#52BAEB"/>
			<stop  offset="1" style="stop-color:#5A6DDC"/>
		</linearGradient>
		<path class="st6" d="M503.2,83.8c-5.9-5.9-15.4-5.9-21.2,0L460.8,105c-5.9,5.9-5.9,15.4,0,21.2c5.9,5.9,15.4,5.9,21.2,0l21.2-21.2
			C509.1,99.1,509.1,89.6,503.2,83.8z"/>
	</g>
</g>
<g>
	<g>
		<linearGradient id="SVGID_8_" gradientUnits="userSpaceOnUse" x1="480.8826" y1="-1.6128" x2="482.8826" y2="511.3871">
			<stop  offset="0" style="stop-color:#52BAEB"/>
			<stop  offset="1" style="stop-color:#5A6DDC"/>
		</linearGradient>
		<path class="st7" d="M503.2,285L482,263.8c-5.9-5.9-15.4-5.9-21.2,0s-5.9,15.4,0,21.2l21.2,21.2c5.9,5.9,15.4,5.9,21.2,0
			S509.1,290.8,503.2,285z"/>
	</g>
</g>
</svg>
